packages/icons/src/svg/28/calendar_outline_28.svg

<?xml version="1.0" encoding="UTF-8"?>
<svg width="28px" height="28px" viewBox="0 0 28 28" version="1.1" xmlns="http://www.w3.org/2000/svg" xmlns:xlink="http://www.w3.org/1999/xlink">
    <!-- Generator: Sketch 63.1 (92452) - https://sketch.com -->
    <title>calendar_outline_28</title>
    <desc>Created with Sketch.</desc>
    <g id="Page-1" stroke="none" stroke-width="1" fill="none" fill-rule="evenodd">
        <g id="calendar_outline_28">
            <rect x="0" y="0" width="28" height="28"></rect>
            <path d="M19,1 C19.5522847,1 20,1.44771525 20,2 L20.0007134,3.15981736 C20.840564,3.29343733 21.3843149,3.50927527 21.9305371,3.80139811 C22.9083149,4.32431939 23.6756806,5.09168511 24.1986019,6.06946289 C24.6736814,6.9577844 24.9469986,7.83956959 24.9930333,9.99907027 L25,10 L25,17.3083444 L24.9946707,17.9183846 C24.9538793,20.1381287 24.6796895,21.0309816 24.1986019,21.9305371 C23.6756806,22.9083149 22.9083149,23.6756806 21.9305371,24.1986019 C20.9527593,24.7215232 19.9829006,25 17.3083444,25 L10.6916556,25 L10.0816154,24.9946707 C7.8618713,24.9538793 6.96901844,24.6796895 6.06946289,24.1986019 C5.09168511,23.6756806 4.32431939,22.9083149 3.80139811,21.9305371 C3.29939368,20.9918704 3.02266926,20.060502 3.00133451,17.6212182 L3,10.6916556 L3,10 C3.05300141,7.83956959 3.32631857,6.9577844 3.80139811,6.06946289 C4.32431939,5.09168511 5.09168511,4.32431939 6.06946289,3.80139811 C6.61590733,3.50915642 7.15987843,3.29326172 8.00031181,3.15965432 L8,2 C8,1.44771525 8.44771525,1 9,1 C9.55228475,1 10,1.44771525 10,2 L9.99907027,3.00696674 C10.2165376,3.00233094 10.4469622,3 10.6916556,3 L17.3083444,3 C17.5534172,3 17.7841769,3.00233817 18.0019411,3.00698832 L18,2 C18,1.44771525 18.4477153,1 19,1 Z M22.999,12 L5,12 L5.0009221,17.591291 L5.00977072,18.1601475 C5.04864664,19.667315 5.20790244,20.3195792 5.56502451,20.9873394 C5.90154619,21.6165802 6.38341978,22.0984538 7.01266061,22.4349755 C7.75898085,22.8341119 8.48594441,22.9860867 10.408709,22.9990779 L17.591291,22.9990779 L18.1601475,22.9902293 C19.667315,22.9513534 20.3195792,22.7920976 20.9873394,22.4349755 C21.6165802,22.0984538 22.0984538,21.6165802 22.4349755,20.9873394 C22.8341119,20.2410191 22.9860867,19.5140556 22.9990779,17.591291 L22.999,12 Z M19.0460121,17 C19.478797,17 19.8195548,17.0812224 20.10474,17.2337411 C20.3899252,17.3862598 20.6137402,17.6100748 20.7662589,17.89526 C20.9187776,18.1804452 21,18.521203 21,18.9539879 L21,19.0460121 C21,19.478797 20.9187776,19.8195548 20.7662589,20.10474 C20.6137402,20.3899252 20.3899252,20.6137402 20.10474,20.7662589 C19.8195548,20.9187776 19.478797,21 19.0460121,21 L18.9539879,21 C18.521203,21 18.1804452,20.9187776 17.89526,20.7662589 C17.6100748,20.6137402 17.3862598,20.3899252 17.2337411,20.10474 C17.0812224,19.8195548 17,19.478797 17,19.0460121 L17,18.9539879 C17,18.521203 17.0812224,18.1804452 17.2337411,17.89526 C17.3862598,17.6100748 17.6100748,17.3862598 17.89526,17.2337411 C18.1804452,17.0812224 18.521203,17 18.9539879,17 L19.0460121,17 Z M17.591291,5.0009221 L10.408709,5.0009221 L10,5.006 L10,6 C10,6.55228475 9.55228475,7 9,7 C8.44771525,7 8,6.55228475 8,6 L7.99925005,5.19251184 C7.618557,5.28042372 7.31722055,5.40214407 7.01266061,5.56502451 C6.38341978,5.90154619 5.90154619,6.38341978 5.56502451,7.01266061 C5.19560369,7.70341749 5.03791225,8.37759259 5.00617938,9.99864362 L22.993,10 L22.9902293,9.83985252 C22.9513534,8.33268497 22.7920976,7.68042082 22.4349755,7.01266061 C22.0984538,6.38341978 21.6165802,5.90154619 20.9873394,5.56502451 C20.6828516,5.40218264 20.3815857,5.28048136 20.0010204,5.1925743 L20,6 C20,6.55228475 19.5522847,7 19,7 C18.4477153,7 18,6.55228475 18,6 L18.0023619,5.00619909 C17.8716635,5.00363578 17.7348083,5.00189178 17.591291,5.0009221 Z" id="↳-Icon-Color" fill="currentColor" fill-rule="nonzero"></path>
        </g>
    </g>
</svg>

<svg xmlns="http://www.w3.org/2000/svg" width="28" height="28" fill="currentColor" viewBox="0 0 28 28"><path d="M19 1a1 1 0 0 1 1 1v1.16c.84.133 1.384.35 1.93.641A5.452 5.452 0 0 1 24.2 6.07c.475.889.748 1.77.794 3.93H25v7.308l-.005.61c-.041 2.22-.315 3.113-.796 4.012a5.452 5.452 0 0 1-2.269 2.27c-.977.522-1.947.801-4.622.801h-6.616l-.61-.005c-2.22-.041-3.113-.315-4.013-.796a5.452 5.452 0 0 1-2.268-2.269c-.502-.938-.778-1.87-.8-4.309L3 10.691V10c.053-2.16.326-3.042.801-3.93A5.452 5.452 0 0 1 6.07 3.8 5.679 5.679 0 0 1 8 3.16V2a1 1 0 0 1 2 0v1.007c.216-.005.447-.007.692-.007h6.616c.245 0 .476.002.694.007L18 2a1 1 0 0 1 1-1Zm3.999 11H5v5.591l.01.57c.039 1.506.198 2.159.555 2.826.337.63.818 1.112 1.448 1.448.746.4 1.473.551 3.396.564h7.182l.57-.009c1.506-.039 2.159-.198 2.826-.555a3.452 3.452 0 0 0 1.448-1.448c.4-.746.551-1.473.564-3.396V12Zm-5.408-7H10.41l-.41.007V6a1 1 0 0 1-2 0v-.807c-.381.087-.683.21-.987.372a3.453 3.453 0 0 0-1.448 1.448c-.37.69-.527 1.365-.559 2.986L22.993 10l-.003-.16c-.039-1.507-.198-2.16-.555-2.827a3.452 3.452 0 0 0-1.448-1.448 3.833 3.833 0 0 0-.986-.372L20 6a1 1 0 1 1-2 0l.002-.994-.41-.005Z"/></svg>
